public/static/lp/carla.svg

<svg width="368" height="92" viewBox="0 0 368 92" fill="none" xmlns="http://www.w3.org/2000/svg">
<path fill-rule="evenodd" clip-rule="evenodd" d="M173.049 26.9425C167.903 21.7568 161.38 18.9049 154.674 18.9049C147.957 18.9049 141.434 21.7568 136.282 26.9536C133.742 29.4991 131.725 32.5236 130.355 35.8601C128.985 39.1909 128.283 42.7669 128.294 46.3763C128.283 49.9856 128.985 53.556 130.355 56.8925C131.725 60.2233 133.742 63.2534 136.282 65.7989C141.428 70.9846 147.951 73.8365 154.657 73.8365C161.364 73.8365 167.897 70.9679 173.033 65.7989C174.141 64.6849 175.149 63.4818 176.052 62.1951L176.163 62.0336L186.028 69.4751L185.916 69.6255C184.591 71.4302 183.12 73.1179 181.51 74.672C174.241 81.7069 164.382 85.5836 153.749 85.5836C143.64 85.5836 134.678 81.7236 127.114 74.115C123.482 70.4833 120.608 66.161 118.647 61.3986C116.686 56.6362 115.689 51.5341 115.701 46.3818C115.689 41.2296 116.686 36.1219 118.647 31.3651C120.608 26.6027 123.482 22.2804 127.114 18.6487C134.555 11.157 144.297 7.03523 154.551 7.03523C164.544 7.03523 174.113 10.9732 181.505 18.1363C182.619 19.2169 183.671 20.3643 184.652 21.5674C185.359 22.4419 186.039 23.3498 186.668 24.28L186.774 24.436L176.692 31.4987L176.586 31.3316C176.163 30.6744 175.695 30.0283 175.211 29.41C174.542 28.5355 173.824 27.7167 173.049 26.9425ZM301.945 66.5843V7.39728H290.71V67.3752C290.71 77.3121 296.203 83.7455 306.635 83.7455H309.298V72.9063H307.554C303.627 72.9063 301.945 70.6504 301.945 66.5843ZM263.668 34.3172V30.0227H252.433V39.9206V42.1765V83.7511H263.668V45.68C263.668 43.5746 262.337 42.1431 260.655 41.9982V39.9206H286.138V29.1816C284.288 28.8029 282.406 28.6079 280.517 28.6079C274.429 28.6079 268.514 30.6131 263.668 34.3172ZM244.591 30.0171H233.356V34.7405C228.22 30.3513 222.823 28.6135 216.501 28.6135C201.016 28.6135 188.417 41.2964 188.417 56.8869C188.417 72.4774 201.016 85.1603 216.501 85.1603C217.999 85.1603 219.42 85.0935 220.773 84.9709C225.58 84.3972 230.304 82.6204 232.448 79.5123H234.303V83.7567H244.585V30.0171H244.591ZM217.275 73.8476C207.556 73.8476 199.652 66.239 199.652 56.8813C199.652 47.5237 207.556 39.915 217.275 39.915C226.995 39.915 234.899 47.5237 234.899 56.8813C234.893 66.239 226.989 73.8476 217.275 73.8476ZM356.141 30.0171H367.376V83.7567H357.088V79.5123H355.234C353.095 82.6148 348.371 84.3972 343.564 84.9709C342.205 85.0935 340.785 85.1603 339.292 85.1603C323.808 85.1603 311.203 72.4718 311.203 56.8869C311.203 41.2964 323.802 28.6135 339.292 28.6135C345.609 28.6135 351.012 30.3458 356.147 34.7405V30.0171H356.141ZM322.432 56.8813C322.432 66.239 330.336 73.8476 340.055 73.8476C349.781 73.8476 357.679 66.239 357.679 56.8813C357.679 47.5237 349.775 39.915 340.055 39.915C330.336 39.915 322.432 47.5237 322.432 56.8813Z" fill="#979AAD"/>
<path fill-rule="evenodd" clip-rule="evenodd" d="M45.6017 92C39.6084 92 33.6819 90.808 28.1453 88.4965C22.6143 86.1849 17.5845 82.7983 13.3569 78.5261C4.80136 69.8926 0 58.1955 0 45.9972C0 33.8044 4.80136 22.1074 13.3569 13.4739C17.5901 9.20167 22.6143 5.8151 28.1453 3.50354C33.6763 1.19198 39.6084 0 45.6017 0V92ZM72.0315 43.7135C74.8833 43.7135 77.7073 43.1509 80.3419 42.0536C82.9765 40.9563 85.3717 39.3466 87.388 37.3191C89.4044 35.2916 91.0029 32.8798 92.0947 30.2285C93.1864 27.5772 93.749 24.7365 93.749 21.8623C93.749 16.0639 91.4597 10.5051 87.388 6.40552C83.3163 2.30599 77.7964 0.00557121 72.037 0.00557121C66.2776 0.00557121 60.7578 2.31156 56.6861 6.40552C52.6144 10.5051 50.3251 16.0639 50.3251 21.8568C50.3251 27.6551 52.6144 33.214 56.6861 37.308C60.7522 41.4131 66.2776 43.7135 72.0315 43.7135ZM93.7434 70.1321C93.7434 73.0007 93.1808 75.8469 92.0891 78.4983C90.9974 81.1496 89.3988 83.5614 87.3824 85.5889C85.3661 87.6164 82.971 89.2261 80.3419 90.329C77.7073 91.4263 74.8833 91.9944 72.0315 91.9944C66.2721 91.9944 60.7522 89.694 56.6805 85.5945C52.6088 81.4949 50.3195 75.9361 50.3195 70.1377C50.3195 64.3393 52.6088 58.786 56.6805 54.6864C60.7522 50.5869 66.2721 48.2865 72.0315 48.2865C74.8833 48.2865 77.7073 48.8491 80.3419 49.9519C82.9765 51.0492 85.3717 52.6589 87.388 54.692C89.4044 56.7251 91.0029 59.1313 92.0947 61.7882C93.1864 64.4395 93.7434 67.2858 93.7434 70.1544V70.1321Z" fill="#979AAD"/>
</svg>

<svg xmlns="http://www.w3.org/2000/svg" width="368" height="92" fill="none"><path fill="#979AAD" fill-rule="evenodd" d="M173.049 26.942c-5.146-5.185-11.669-8.037-18.375-8.037-6.717 0-13.24 2.852-18.392 8.049a27.28 27.28 0 0 0-5.927 8.906 27.436 27.436 0 0 0-2.061 10.516c-.011 3.61.691 7.18 2.061 10.517a27.339 27.339 0 0 0 5.927 8.906c5.146 5.186 11.669 8.037 18.375 8.037 6.707 0 13.24-2.868 18.376-8.037a27.535 27.535 0 0 0 3.019-3.604l.111-.161 9.865 7.441-.112.15a39.491 39.491 0 0 1-4.406 5.047c-7.269 7.035-17.128 10.912-27.761 10.912-10.109 0-19.071-3.86-26.635-11.469a38.94 38.94 0 0 1-8.467-12.716 39.191 39.191 0 0 1-2.946-15.017 39.17 39.17 0 0 1 2.946-15.017 38.94 38.94 0 0 1 8.467-12.716c7.441-7.492 17.183-11.614 27.437-11.614 9.993 0 19.562 3.938 26.954 11.101a39.993 39.993 0 0 1 3.147 3.431 39.75 39.75 0 0 1 2.016 2.713l.106.156-10.082 7.063-.106-.167a25.774 25.774 0 0 0-1.375-1.922 24.63 24.63 0 0 0-2.162-2.468Zm128.896 39.642V7.397H290.71v59.978c0 9.937 5.493 16.37 15.925 16.37h2.663V72.907h-1.744c-3.927 0-5.609-2.256-5.609-6.322Zm-38.277-32.267v-4.294h-11.235V83.75h11.235V45.68c0-2.105-1.331-3.537-3.013-3.682v-2.077h25.483V29.18a27.736 27.736 0 0 0-22.47 5.136Zm-19.077-4.3h-11.235v4.723c-5.136-4.389-10.533-6.127-16.855-6.127-15.485 0-28.084 12.683-28.084 28.274 0 15.59 12.599 28.273 28.084 28.273 1.498 0 2.919-.066 4.272-.19 4.807-.573 9.531-2.35 11.675-5.458h1.855v4.245h10.282v-53.74h.006Zm-27.316 43.83c-9.719 0-17.623-7.608-17.623-16.966 0-9.357 7.904-16.966 17.623-16.966 9.72 0 17.624 7.609 17.624 16.966-.006 9.358-7.91 16.967-17.624 16.967Zm138.866-43.83h11.235v53.74h-10.288v-4.245h-1.854c-2.139 3.103-6.863 4.885-11.67 5.459-1.359.123-2.779.19-4.272.19-15.484 0-28.089-12.69-28.089-28.274 0-15.59 12.599-28.274 28.089-28.274 6.317 0 11.72 1.733 16.855 6.127v-4.723h-.006Zm-33.709 26.864c0 9.358 7.904 16.967 17.623 16.967 9.726 0 17.624-7.609 17.624-16.967 0-9.357-7.904-16.966-17.624-16.966-9.719 0-17.623 7.609-17.623 16.966ZM45.602 92a45.289 45.289 0 0 1-17.457-3.504 45.481 45.481 0 0 1-14.788-9.97C4.8 69.893 0 58.196 0 45.997c0-12.193 4.801-23.89 13.357-32.523a45.54 45.54 0 0 1 14.788-9.97A45.267 45.267 0 0 1 45.602 0v92Zm26.43-48.286c2.851 0 5.675-.563 8.31-1.66a21.716 21.716 0 0 0 7.046-4.735 21.856 21.856 0 0 0 4.707-7.09 21.967 21.967 0 0 0 1.654-8.367c0-5.798-2.29-11.357-6.361-15.456a21.63 21.63 0 0 0-15.351-6.4c-5.76 0-11.28 2.306-15.35 6.4a21.932 21.932 0 0 0-6.362 15.45c0 5.8 2.29 11.358 6.361 15.452a21.599 21.599 0 0 0 15.345 6.406Zm21.711 26.418c0 2.869-.562 5.715-1.654 8.366a21.854 21.854 0 0 1-4.707 7.09 21.856 21.856 0 0 1-7.04 4.741 21.617 21.617 0 0 1-8.31 1.665c-5.76 0-11.28-2.3-15.351-6.4a21.935 21.935 0 0 1-6.361-15.456c0-5.799 2.289-11.352 6.36-15.452a21.63 21.63 0 0 1 15.351-6.4c2.852 0 5.676.563 8.31 1.666a21.643 21.643 0 0 1 7.047 4.74 21.88 21.88 0 0 1 4.707 7.096 21.983 21.983 0 0 1 1.648 8.366v-.022Z" clip-rule="evenodd"/></svg>
